X: 32114
T: Pete Bradley's
R: polka
M: 2/4
K: Gmajor
|:B2 BA|GE ED|EA AB/A/|GB d>A|
B2 BA|GE ED|EA AB/A/|G2 G>A:|
|:Bd de|dB g>B|dB GA|BA AG/A/|
Bd de|dB g>B|dB AB/A/|G2 G>A:|

